X: 4
T: The Noisy Curlew
R: reel
M: 4/4
L: 1/8
K: Gmaj
|: GB B2 Gc c2 | GB B2 A2 BA | GB B2 dega | bgdc BG G2 |
GB B2 Gc c2 | GB B2 A2 BA | GB B2 dega | bgdc BG G2 :||
|: BcdB c2 dc | BcdB cBAc | BcdB c2 dc | BGDc BG G2 |
BcdB c2 dc | BcdB cBAc | BGDB c2 dc | BGDc BG G2 :||


Tune 1432	Setting 29077

